X: 8633
T:Timour the Tartar
Z:Footnote: 18 July 1996
M:4/4
L:1/8
Q:128
K:A
z6Ez|A2(3cBA e2(3cBA|eAaA gAfA|e2(3cBA e2(3cBA|BEdE cEBE|
A2(3cBA e2(3cBA|eAaA gAfA|efec eaec|BABc A4|
E2(3GFE B2(3GFE|BEdE cEBE|A2(3cBA e2(3cBA|eAaA gAfA|
efec agaf|efec agaf|ecag fedc|BABc A4|
